!!!OTL: Jessie Munroe
!!!ONM: 78.
**kern
*clefG2
*k[b-]
*F:
*M3/4
*MM120
{4a
=1
4a
4cc
4a
=2
4a
4cc
4f
=3
4f
4a
4f
=4
4f
4a}
{4f
=5
4a
4cc
4ff
=6
4ff
4ee
4cc
=7
4cc
4a
4cc
=8
4ff
4r}
{4cc
=9
4dd
4ff
4ff
=10
4ff
4ee
8f
8f
=11
4a
4f
8c
8c
=12
4f
4a}
{4a
=13
4dd
4dd
4dd
=14
4dd
4cc
4f
=15
4a
4f
4f
=16
4.f
8r
=||
8r}
{8c
=17
4.f
8g
4a
=18
4.a
8r
4cc
=19
4a
4f
4f
=20
4a
4cc}
{4a
=21
4dd
4dd
4dd
=22
4dd
4cc
4f
=23
4a
4f
4f
=24
2f}
==
*-
!!!CNT: Folksongs of Maritime Canada
!!!MRD: 1928///-1932///
!!!OCL: Helen Creighton
!!!YOR: Songs and Ballads from Nova Scotia
!!!PPR: J.M. Dent & Sons, Limited
!!!PPP: Toronto, Canada
!!!PDT: 1932///
!!!reprint: Dover Publications, 1992: ISBN 0-486-21703-5
!!!ENC1: Craig Stuart Sapp (music and bibliographic data)                       
!!!ENC2: Marcus Pearce (phrase markings and key designations)                   
!!!ENC3: Darrell Conklin (phrase markings and key designations)   
!!!END: 2002/04/10/
!!!EEV: 2004/06/05
!!!MPN: Mr. Ben Henneberry
!!!PPG: 169
!!!EFL: 79/152
!!!ARE: Canada; Nova Scotia
!!!verses: 5
!!!VTS: 850731114
